icons/src/scalable/default/devices/media-zip-symbolic.svg

<svg xmlns="http://www.w3.org/2000/svg" viewBox="0 0 16 16">
  <defs id="defs3051">
    <style type="text/css" id="current-color-scheme">
      .ColorScheme-Text {
        color:#4d4d4d;
      }
      </style>
  </defs>
 <path 
     style="fill:#bebebe;fill-opacity:1;stroke:none" 
     class="ColorScheme-Text"
     d="M 3 1.0039062 C 3 1.0039062 1 1.0039062 1 3.0039062 L 1 14.003906 C 1 14.557906 1.446 15.003906 2 15.003906 L 14 15.003906 C 14.554 15.003906 15 14.557906 15 14.003906 L 15 3.0039062 C 15 3.0039062 15 1.0039063 13 1.0039062 L 3 1.0039062 z M 3 3.0039062 L 4 3.0039062 L 4 6.0039062 L 12 6.0039062 L 12 3.0039062 L 13 3.0039062 L 13 13.003906 L 3 13.003906 L 3 3.0039062 z "
     />
</svg>

<svg version="1.1" viewBox="0 0 16 16" xmlns="http://www.w3.org/2000/svg">
 <path d="m3 1.0039s-2 0-2 2v11c0 0.554 0.446 1 1 1h12c0.554 0 1-0.446 1-1v-11s0-2-2-2h-10zm0 2h1v3h8v-3h1v10h-10v-10z" fill="#bebebe"/>
</svg>
